src/lib/packages/icons/src/assets/line/chart-bar-alt.svg

<svg xmlns="http://www.w3.org/2000/svg" width="24" height="24" fill="none"><path fill="currentColor" d="M12.5 2.25h-1c-1.409 0-2.25.841-2.25 2.25v15c0 1.409.841 2.25 2.25 2.25h1c1.409 0 2.25-.841 2.25-2.25v-15c0-1.409-.841-2.25-2.25-2.25Zm.75 17.25c0 .589-.161.75-.75.75h-1c-.589 0-.75-.161-.75-.75v-15c0-.589.161-.75.75-.75h1c.589 0 .75.161.75.75v15ZM19.5 7.25h-1c-1.409 0-2.25.841-2.25 2.25v10c0 1.409.841 2.25 2.25 2.25h1c1.409 0 2.25-.841 2.25-2.25v-10c0-1.409-.841-2.25-2.25-2.25Zm.75 12.25c0 .589-.161.75-.75.75h-1c-.589 0-.75-.161-.75-.75v-10c0-.589.161-.75.75-.75h1c.589 0 .75.161.75.75v10ZM5.5 11.25h-1c-1.409 0-2.25.841-2.25 2.25v6c0 1.409.841 2.25 2.25 2.25h1c1.409 0 2.25-.841 2.25-2.25v-6c0-1.409-.841-2.25-2.25-2.25Zm.75 8.25c0 .589-.161.75-.75.75h-1c-.589 0-.75-.161-.75-.75v-6c0-.589.161-.75.75-.75h1c.589 0 .75.161.75.75v6Z"/></svg>

<svg width="24" height="24" viewBox="0 0 24 24" fill="none" xmlns="http://www.w3.org/2000/svg">
<path d="M12.5 2.25H11.5C10.091 2.25 9.25 3.091 9.25 4.5V19.5C9.25 20.909 10.091 21.75 11.5 21.75H12.5C13.909 21.75 14.75 20.909 14.75 19.5V4.5C14.75 3.091 13.909 2.25 12.5 2.25ZM13.25 19.5C13.25 20.089 13.089 20.25 12.5 20.25H11.5C10.911 20.25 10.75 20.089 10.75 19.5V4.5C10.75 3.911 10.911 3.75 11.5 3.75H12.5C13.089 3.75 13.25 3.911 13.25 4.5V19.5ZM19.5 7.25H18.5C17.091 7.25 16.25 8.091 16.25 9.5V19.5C16.25 20.909 17.091 21.75 18.5 21.75H19.5C20.909 21.75 21.75 20.909 21.75 19.5V9.5C21.75 8.091 20.909 7.25 19.5 7.25ZM20.25 19.5C20.25 20.089 20.089 20.25 19.5 20.25H18.5C17.911 20.25 17.75 20.089 17.75 19.5V9.5C17.75 8.911 17.911 8.75 18.5 8.75H19.5C20.089 8.75 20.25 8.911 20.25 9.5V19.5ZM5.5 11.25H4.5C3.091 11.25 2.25 12.091 2.25 13.5V19.5C2.25 20.909 3.091 21.75 4.5 21.75H5.5C6.909 21.75 7.75 20.909 7.75 19.5V13.5C7.75 12.091 6.909 11.25 5.5 11.25ZM6.25 19.5C6.25 20.089 6.089 20.25 5.5 20.25H4.5C3.911 20.25 3.75 20.089 3.75 19.5V13.5C3.75 12.911 3.911 12.75 4.5 12.75H5.5C6.089 12.75 6.25 12.911 6.25 13.5V19.5Z" fill="currentColor"/>
</svg>
